images/delivery-2.svg

<svg width="136" height="164" viewBox="0 0 136 164" fill="none" xmlns="http://www.w3.org/2000/svg">
<g clip-path="url(#clip0_2867:222)">
<path d="M93.1329 38.7669C101.254 38.7669 108.078 33.2249 110.033 25.7179L115.5 26.5319C115.607 26.5479 115.715 26.5559 115.82 26.5559C116.871 26.5559 117.791 25.7859 117.951 24.7159C118.127 23.5379 117.312 22.4399 116.135 22.2649L110.594 21.4399C110.596 21.3939 110.598 21.3489 110.598 21.3019C110.598 21.1199 110.592 20.9399 110.584 20.7599C110.584 20.7599 110.133 14.2419 109.51 11.5229C108.889 8.80394 106.975 8.22694 106.975 8.22694C97.2049 6.01494 87.2029 5.78894 84.5999 5.78894C81.9969 5.78894 81.4419 7.12094 81.4419 7.12094L78.2919 12.1169L78.2819 12.1139C78.2059 12.2359 78.136 12.3589 78.063 12.4819L78.0359 12.5249C76.5339 15.1049 75.6689 18.1009 75.6689 21.3019C75.6679 30.9479 83.4879 38.7669 93.1329 38.7669Z" fill="white"/>
<path d="M131.535 78.076V78.074L104.793 75.906L95.5469 54.794C95.5469 54.794 95.0859 52.02 89.5389 46.318C83.9899 40.616 72.7399 42.928 72.7399 42.928C72.7399 42.928 48.8539 47.397 40.9949 49.246C33.1349 51.096 32.8269 59.109 32.8269 59.109L32.1949 63.628L17.0169 60.687C16.8259 60.65 16.6359 60.632 16.4489 60.632C15.0419 60.632 13.7779 61.632 13.5009 63.061L6.08995 101.303C5.77595 102.923 6.84395 104.505 8.46495 104.819L59.6609 114.742C59.7759 114.764 59.8909 114.766 60.0069 114.775H60.0089C59.2809 114.879 58.7179 114.74 58.7179 114.74L49.3179 112.891L46.2359 129.996L22.6759 150.359C20.9749 151.72 19.8839 153.812 19.8839 156.16C19.8839 160.264 23.2099 163.59 27.3129 163.59C29.3479 163.59 31.1909 162.772 32.5329 161.445C32.5329 161.445 60.2579 139.395 62.1079 137.854C63.9579 136.314 64.8809 134.001 64.8809 134.001C64.8809 134.001 69.422 120.053 70.66 117.127C71.5079 115.123 75.5919 116.048 75.5919 116.048L98.4769 124.679L106.092 153.741C106.174 154.371 106.334 154.975 106.565 155.545H106.567C107.665 158.273 110.337 160.199 113.456 160.199C117.56 160.199 120.886 156.872 120.886 152.769C120.886 152.17 120.814 151.59 120.679 151.033C119.837 146.068 116.075 123.987 115.118 119.207C114.04 113.813 110.497 112.273 110.497 112.273C110.497 112.273 89.229 100.715 87.8429 99.944C86.4559 99.174 86.7649 97.17 86.7649 97.17L90.6949 82.839L93.4679 88.695C93.4679 88.695 95.087 91.969 97.5519 92.086L130.909 92.906C135.013 92.906 138.339 89.58 138.339 85.475C138.338 81.586 135.346 78.396 131.535 78.076ZM60.1039 62.807L58.3149 68.687L68.2129 70.606L47.9989 66.689L48.5469 64.193L60.1039 62.807ZM57.8549 108.28L12.5509 99.499L18.8209 67.146L31.3629 69.577L29.7449 81.144L29.1049 85.55C29.0999 85.576 29.0969 85.606 29.0929 85.632L29.0749 85.759H29.0769C29.0369 86.071 29.0139 86.388 29.0139 86.71C29.0139 90.814 32.3409 94.139 36.4439 94.139C40.5469 94.139 43.8729 90.814 43.8729 86.71C43.8729 86.392 43.8519 86.08 43.8119 85.773L46.7129 72.55L64.1259 75.924L57.8549 108.28Z" fill="white"/>
<path d="M25.0499 17.008H63.0769C64.1769 17.008 65.0769 16.112 65.0769 15.018C65.0769 13.924 64.1769 13.028 63.0769 13.028H25.0499C23.9499 13.028 23.0499 13.924 23.0499 15.018C23.0499 16.112 23.9499 17.008 25.0499 17.008Z" fill="white"/>
<path d="M38.08 23.0249C36.98 23.0249 36.08 23.9209 36.08 25.0149C36.08 26.1089 36.98 27.0049 38.08 27.0049H61.039C62.139 27.0049 63.039 26.1089 63.039 25.0149C63.039 23.9199 62.139 23.0249 61.039 23.0249H38.08Z" fill="white"/>
<path d="M87.0981 32.732C95.2191 32.732 102.043 27.19 103.998 19.683L109.465 20.497C109.572 20.513 109.68 20.521 109.785 20.521C110.836 20.521 111.756 19.751 111.916 18.681C112.092 17.503 111.277 16.405 110.1 16.23L104.559 15.405C104.561 15.359 104.563 15.314 104.563 15.267C104.563 15.085 104.557 14.905 104.549 14.725C104.549 14.725 104.098 8.20703 103.475 5.48803C102.854 2.76903 100.94 2.19203 100.94 2.19203C91.1701 -0.0199716 81.1681 -0.245972 78.5641 -0.245972C75.9601 -0.245972 75.4061 1.08603 75.4061 1.08603L72.2561 6.08203L72.2461 6.07903C72.1701 6.20003 72.1001 6.32403 72.0271 6.44703L72.0001 6.49003C70.4981 9.07003 69.6331 12.066 69.6331 15.267C69.6331 24.913 77.4531 32.732 87.0981 32.732Z" fill="#3A3A3A"/>
<path d="M125.5 72.0411V72.0391L98.758 69.8711L89.512 48.7591C89.512 48.7591 89.051 45.9851 83.504 40.2831C77.955 34.5811 66.705 36.8931 66.705 36.8931C66.705 36.8931 42.819 41.3621 34.96 43.2101C27.1 45.0601 26.792 53.0731 26.792 53.0731L23.71 75.1091L23.07 79.5151C23.065 79.5411 23.062 79.5711 23.058 79.5971L23.04 79.7241H23.042C23.002 80.0361 22.979 80.3531 22.979 80.6751C22.979 84.7791 26.306 88.1041 30.409 88.1041C34.512 88.1041 37.838 84.7791 37.838 80.6751C37.838 80.3571 37.817 80.0451 37.777 79.7381L42.511 58.1571L54.068 56.7711L52.279 62.6511L62.177 64.5701C63.797 64.8831 64.865 66.4661 64.552 68.0871L57.14 106.33C56.863 107.76 55.599 108.76 54.192 108.76C54.12 108.76 54.046 108.744 53.972 108.739C53.244 108.843 52.681 108.704 52.681 108.704L43.281 106.855L40.199 123.96L16.639 144.323C14.938 145.684 13.847 147.776 13.847 150.124C13.847 154.228 17.173 157.554 21.276 157.554C23.311 157.554 25.154 156.736 26.496 155.409C26.496 155.409 54.221 133.359 56.071 131.818C57.921 130.278 58.844 127.965 58.844 127.965C58.844 127.965 63.385 114.017 64.623 111.091C65.471 109.087 69.555 110.012 69.555 110.012L92.44 118.643L100.055 147.705C100.137 148.335 100.297 148.939 100.528 149.509H100.53C101.628 152.237 104.3 154.163 107.419 154.163C111.523 154.163 114.849 150.836 114.849 146.733C114.849 146.134 114.777 145.554 114.642 144.997C113.8 140.032 110.038 117.951 109.081 113.171C108.003 107.777 104.46 106.237 104.46 106.237C104.46 106.237 83.193 94.6821 81.807 93.9101C80.42 93.1401 80.729 91.1361 80.729 91.1361L84.659 76.8051L87.432 82.6611C87.432 82.6611 89.051 85.9351 91.516 86.0521L124.873 86.8721C128.977 86.8721 132.303 83.5461 132.303 79.4411C132.303 75.5511 129.311 72.3601 125.5 72.0411Z" fill="#3A3A3A"/>
<path d="M53.9708 109.144H53.9728C54.0458 109.15 54.1198 109.165 54.1928 109.165C55.5998 109.165 56.8638 108.165 57.1408 106.735L64.5528 68.492C64.8658 66.871 63.7978 65.289 62.1778 64.975L41.9638 61.058L40.6778 66.92L58.0908 70.294L51.8198 102.648L6.51579 93.869L12.7858 61.516L25.3278 63.947L26.1598 57.997L10.9818 55.055C10.7908 55.018 10.6008 55 10.4138 55C9.00679 55 7.74279 56 7.46579 57.429L0.0547894 95.673C-0.259211 97.293 0.808789 98.875 2.42979 99.189L53.6258 109.112C53.7398 109.134 53.8548 109.135 53.9708 109.144Z" fill="#F0C42E"/>
<path d="M59.042 8.98194C59.042 10.0769 58.142 10.9719 57.042 10.9719H19.015C17.915 10.9719 17.015 10.0759 17.015 8.98194C17.015 7.88794 17.915 6.99194 19.015 6.99194H57.042C58.142 6.99294 59.042 7.88794 59.042 8.98194Z" fill="#F0C52E"/>
<path d="M57.0039 18.98C57.0039 20.074 56.1039 20.97 55.0039 20.97H32.0439C30.9439 20.97 30.0439 20.074 30.0439 18.98C30.0439 17.885 30.9439 16.99 32.0439 16.99H55.0029C56.1039 16.99 57.0039 17.886 57.0039 18.98Z" fill="#F0C52E"/>
</g>
<defs>
<clipPath id="clip0_2867:222">
<rect width="136" height="164" fill="white"/>
</clipPath>
</defs>
</svg>

<svg width="136" height="164" fill="none" xmlns="http://www.w3.org/2000/svg"><g clip-path="url(#a)"><path d="M93.13 38.77c8.12 0 14.95-5.55 16.9-13.05l5.47.81a2.16 2.16 0 0 0 .64-4.27l-5.55-.82v-.68s-.46-6.52-1.08-9.24c-.62-2.72-2.54-3.3-2.54-3.3A111.85 111.85 0 0 0 84.6 5.8c-2.6 0-3.16 1.33-3.16 1.33l-3.15 5-.23.36-.02.04a17.46 17.46 0 0 0 15.1 26.24ZM131.53 78.08 104.8 75.9l-9.24-21.12s-.46-2.77-6.01-8.47c-5.55-5.7-16.8-3.4-16.8-3.4s-23.89 4.48-31.75 6.33c-7.86 1.85-8.16 9.86-8.16 9.86l-.64 4.52-15.17-2.94a2.99 2.99 0 0 0-3.52 2.37L6.1 101.3a3 3 0 0 0 2.37 3.52l51.2 9.92.35.04c-.73.1-1.3-.04-1.3-.04l-9.4-1.85-3.07 17.1-23.56 20.37a7.41 7.41 0 0 0 4.63 13.23 7.4 7.4 0 0 0 5.22-2.15s27.73-22.04 29.58-23.59c1.85-1.54 2.77-3.85 2.77-3.85s4.54-13.95 5.78-16.87c.85-2 4.93-1.08 4.93-1.08l22.89 8.63 7.61 29.06a7.43 7.43 0 1 0 14.59-2.7c-.84-4.97-4.6-27.05-5.56-31.83-1.08-5.4-4.62-6.94-4.62-6.94s-21.27-11.55-22.66-12.33c-1.38-.77-1.08-2.77-1.08-2.77l3.93-14.33 2.78 5.85s1.62 3.28 4.08 3.4l33.36.82a7.43 7.43 0 0 0 .63-14.83ZM60.1 62.8l-1.79 5.88 9.9 1.92L48 66.69l.55-2.5 11.55-1.38Zm-2.25 45.47-45.3-8.78 6.27-32.35 12.54 2.43-1.62 11.56-.64 4.41v.08l-.03.13a7.43 7.43 0 1 0 14.74.01l2.9-13.22 17.42 3.37-6.28 32.36ZM25.05 17h38.03a2 2 0 0 0 2-1.98 2 2 0 0 0-2-2H25.05a2 2 0 0 0-2 2 2 2 0 0 0 2 1.99ZM38.08 23.02a2 2 0 0 0-2 2 2 2 0 0 0 2 1.98h22.96a2 2 0 0 0 2-1.99 2 2 0 0 0-2-1.99H38.08Z" fill="#fff"/><path d="M87.1 32.73c8.12 0 14.94-5.54 16.9-13.05l5.47.82.31.02a2.16 2.16 0 0 0 .32-4.29l-5.54-.83v-.13l-.01-.54s-.45-6.52-1.08-9.24c-.62-2.72-2.53-3.3-2.53-3.3A111.85 111.85 0 0 0 78.56-.25c-2.6 0-3.15 1.34-3.15 1.34l-3.15 5-.01-.01-.22.37-.03.04a17.47 17.47 0 0 0 15.1 26.24ZM125.5 72.04l-26.74-2.17-9.25-21.11s-.46-2.77-6-8.48c-5.56-5.7-16.8-3.39-16.8-3.39s-23.9 4.47-31.75 6.32c-7.86 1.85-8.17 9.86-8.17 9.86l-3.08 22.04-.64 4.4-.01.09-.02.12a7.43 7.43 0 1 0 14.73.01l4.74-21.57 11.56-1.39-1.8 5.88 9.9 1.92a3.01 3.01 0 0 1 2.38 3.52l-7.41 38.24a3.01 3.01 0 0 1-2.95 2.43l-.22-.02c-.73.1-1.29-.04-1.29-.04l-9.4-1.84-3.08 17.1-23.56 20.36a7.41 7.41 0 0 0 4.64 13.23 7.4 7.4 0 0 0 5.22-2.14s27.72-22.05 29.57-23.6a10.93 10.93 0 0 0 2.77-3.84s4.54-13.95 5.78-16.88c.85-2 4.94-1.08 4.94-1.08l22.88 8.63 7.62 29.07a7.43 7.43 0 1 0 14.59-2.7c-.85-4.98-4.61-27.06-5.57-31.84-1.08-5.4-4.62-6.93-4.62-6.93S83.19 94.68 81.81 93.9c-1.39-.77-1.08-2.77-1.08-2.77l3.93-14.33 2.77 5.85s1.62 3.28 4.09 3.4l33.35.81a7.43 7.43 0 0 0 .63-14.83Z" fill="#3A3A3A"/><path d="m53.97 109.14.22.03c1.41 0 2.67-1 2.95-2.44l7.41-38.24a3.01 3.01 0 0 0-2.37-3.52l-20.22-3.91-1.28 5.86 17.41 3.37-6.27 32.36-45.3-8.78 6.27-32.35 12.54 2.43.83-5.95-15.18-2.95a2.99 2.99 0 0 0-3.51 2.38L.05 95.67a3 3 0 0 0 2.38 3.52l51.2 9.92c.11.02.22.03.34.03Z" fill="#F0C42E"/><path d="M59.04 8.98a2 2 0 0 1-2 2H19.02a2 2 0 0 1-2-2 2 2 0 0 1 2-1.99h38.02a2 2 0 0 1 2 2ZM57 18.98a2 2 0 0 1-2 1.99H32.04a2 2 0 0 1-2-1.99 2 2 0 0 1 2-1.99H55a2 2 0 0 1 2 1.99Z" fill="#F0C52E"/></g><defs><clipPath id="a"><path fill="#fff" d="M0 0h136v164H0z"/></clipPath></defs></svg>
